src/assets/img/main/index/svg/info-icon-policy.svg

<?xml version="1.0" encoding="UTF-8"?>
<svg width="auto" height="auto" viewBox="0 0 112 102" version="1.1" xmlns="http://www.w3.org/2000/svg" xmlns:xlink="http://www.w3.org/1999/xlink">
    <!-- Generator: Sketch 46.2 (44496) - http://www.bohemiancoding.com/sketch -->
    <title>Group 5</title>
    <desc>Created with Sketch.</desc>
    <defs>
        <path d="M57.7543575,0.0560933998 C57.8350967,0.0499488932 57.9160347,0.0469757447 57.996575,0.0469757447 C58.7373469,0.0469757447 59.4560448,0.301477248 60.0208213,0.768657967 L74.7604922,12.9627288 C75.3867179,13.4810477 75.7725159,14.2181903 75.8331697,15.0128137 L81.6718445,91.6633545 C81.6766173,91.7253942 81.6792025,91.7868393 81.6801968,91.8482843 L81.6801968,91.9240005 C81.6601115,93.4670645 80.416609,94.7700964 78.789496,94.8923919 L10.3505227,100.02583 C10.2781358,100.03138 10.2063456,100.034155 10.1347542,100.034948 L10.0762879,100.034948 C8.47602171,100.020875 7.13070035,98.8292368 7.01158025,97.2631804 L0.165057905,7.38886841 C0.159887416,7.32088241 0.157103307,7.25309463 0.156705577,7.18590148 L0.156705577,7.14566487 C0.167444284,5.59467245 1.41432749,4.28212654 3.04800302,4.15963282 L57.7543575,0.0560933998 Z M3.27610111,7.15537715 L10.1224246,97.0300856 L78.561199,91.8966475 L72.8557637,17.0010572 L60.4123864,17.9344276 C58.6941932,18.0634622 57.1995243,16.8264343 57.0732451,15.1719763 L56.160455,3.18860256 L3.27610111,7.15537715 Z M59.365959,4.19630165 L60.1842883,14.938485 L71.3390208,14.1018411 L59.365959,4.19630165 Z" id="path-1"></path>
        <path d="M6.95271623,2.83955493 C7.07104087,1.26319165 8.43207256,0.0646164253 10.0462593,0.0648146352 C10.1264019,0.0648146352 10.2075388,0.0677877836 10.2888746,0.0737340804 L64.9994052,4.12256757 C65.8244958,4.18361622 66.5921145,4.5578365 67.1334249,5.16277309 L79.8725145,19.4045504 C80.4142226,20.0096852 80.68448,20.7959838 80.6248206,21.5904091 L74.8635042,98.2466979 C74.7453784,99.8165202 73.3952843,101.011726 71.7896488,101.02124 L71.7504724,101.02124 C71.6766935,101.021042 71.6021191,101.01787 71.5273459,101.012519 L3.08340098,95.9472649 C1.36500899,95.8200142 0.072983435,94.3756587 0.197472891,92.7210025 L6.95271623,2.83955493 Z M3.3085161,92.9511242 L71.7522621,98.0161798 L77.381731,23.1152378 L64.9373593,22.1943546 C63.2189673,22.0671039 61.9273395,20.6227484 62.0514312,18.9680922 L62.9522894,6.98372739 L10.0635606,3.06987483 L3.3085161,92.9511242 Z M65.1626733,19.1982139 L76.3180024,20.0239563 L65.9698661,8.45523763 L65.1626733,19.1982139 Z" id="path-3"></path>
        <path d="M3.22161212,0.105645873 L58.5661242,0.105645873 C59.4009592,0.105645873 60.2009929,0.421988863 60.7916218,0.98549959 L74.684128,14.2475254 C75.2741603,14.8110361 75.6054693,15.5753334 75.6054693,16.3717408 L75.6054693,93.240907 C75.6054693,94.900122 74.1969089,96.2453726 72.4584316,96.2453726 L3.22161212,96.2453726 C1.48313476,96.2453726 0.0741766247,94.900122 0.0741766247,93.240907 L0.0741766247,3.11011144 C0.0741766247,1.45089642 1.48313476,0.105645873 3.22161212,0.105645873 Z M3.22161212,3.11011144 L3.22161212,93.240907 L72.4584316,93.240907 L72.4584316,18.1318446 L59.8698828,18.1318446 C58.1322009,18.1318446 56.7232428,16.7865941 56.7232428,15.1273791 L56.7232428,3.11011144 L3.22161212,3.11011144 Z M59.8698828,4.35486957 L59.8698828,15.1273791 L71.1550707,15.1273791 L59.8698828,4.35486957 Z" id="path-5"></path>
    </defs>
    <g id="Welcome" stroke="none" stroke-width="1" fill="none" fill-rule="evenodd">
        <g id="Search-Drop-Down-Menu" transform="translate(-239.000000, -631.000000)">
            <g id="Group-5" transform="translate(239.000000, 631.000000)">
                <polygon id="Fill-1" fill="#FFFFFF" points="4.93326259 6.82492162 3.276121 8.60266615 8.62399712 98.803628 75.6371087 94.9460671 78.5612189 93.3437383 74.3045147 16.8860558 58.2686421 2.87618412"></polygon>
                <g id="Group-4" transform="translate(0.000000, 1.446932)">
                    <mask id="mask-2" fill="white">
                        <use xlink:href="#path-1"></use>
                    </mask>
                    <g id="Clip-3"></g>
                    <polygon id="Fill-2" fill="#077280" mask="url(#mask-2)" points="-5.0456014 105.220317 86.8829015 105.220317 86.8829015 -5.13819507 -5.0456014 -5.13819507"></polygon>
                </g>
                <polygon id="Fill-5" fill="#282F54" points="14.6041643 74.5735191 67.2113004 70.6142765 66.9830035 67.6185321 14.3760662 71.5777748"></polygon>
                <polygon id="Fill-6" fill="#077280" points="14.3758674 71.5779135 14.6041643 74.5736578 67.2113004 70.6146134 66.9830035 67.6184727"></polygon>
                <polygon id="Fill-7" fill="#282F54" points="19.513762 71.1912655 19.513762 74.2040558 67.2113203 70.6144747 66.9830234 67.6185321"></polygon>
                <polygon id="Fill-8" fill="#282F54" points="14.0145695 66.8334624 66.6215068 62.8742198 66.3934087 59.8784754 13.7864714 63.8379163"></polygon>
                <polygon id="Fill-9" fill="#077280" points="13.7864516 63.8378964 14.0143508 66.8336408 66.6214869 62.8741999 66.3931899 59.8784556"></polygon>
                <polygon id="Fill-10" fill="#282F54" points="18.9241871 63.4511493 18.9241871 66.4639397 66.6213477 62.8741603 66.3932496 59.878416"></polygon>
                <polygon id="Fill-11" fill="#282F54" points="13.4249549 59.0935841 66.032091 55.1343415 65.803794 52.1383989 13.1968568 56.0978397"></polygon>
                <polygon id="Fill-12" fill="#077280" points="13.1966778 56.0978397 13.4249747 59.0935841 66.0321109 55.1345397 65.8038139 52.1383989"></polygon>
                <polygon id="Fill-14" fill="#282F54" points="15.193779 82.3135758 67.8009151 78.3543332 67.5726182 75.3583906 14.9656809 79.3178315"></polygon>
                <polygon id="Fill-15" fill="#077280" points="14.965661 79.3179702 15.1935603 82.3137145 67.8010941 78.3546701 67.5723994 75.3585294"></polygon>
                <polygon id="Fill-16" fill="#282F54" points="20.103496 78.9312231 20.103496 81.9442116 67.8010543 78.3546305 67.5723596 75.3584897"></polygon>
                <polygon id="Fill-17" fill="#282F54" points="15.7833738 90.0536325 68.3905099 86.0941916 68.1622129 83.0984473 15.5552757 87.0578881"></polygon>
                <polygon id="Fill-18" fill="#077280" points="15.555057 87.0579674 15.7833539 90.0537118 68.39049 86.0942709 68.1621931 83.0985266"></polygon>
                <polygon id="Fill-19" fill="#282F54" points="20.693051 86.6713392 20.693051 89.6841296 68.3904105 86.0943502 68.1621135 83.0986059"></polygon>
                <polygon id="Fill-20" fill="#282F54" points="11.4572857 35.8736122 64.0642229 31.9141714 63.8361248 28.918427 11.2291876 32.8776697"></polygon>
                <polygon id="Fill-21" fill="#077280" points="11.2287501 32.8778679 11.4574447 35.8736122 64.064382 31.9143696 63.8358862 28.9186252"></polygon>
                <polygon id="Fill-23" fill="#282F54" points="10.8676909 28.1335555 63.474827 24.1743129 63.24653 21.1785685 10.6395928 25.1378112"></polygon>
                <polygon id="Fill-24" fill="#077280" points="10.6394138 25.1378508 10.867313 28.1335951 63.4750457 24.1741543 63.2465499 21.1786082"></polygon>
                <polygon id="Fill-26" fill="#282F54" points="12.0468804 43.6135698 64.6538177 39.6543272 64.4257196 36.6583846 11.8187824 40.6178255"></polygon>
                <polygon id="Fill-27" fill="#077280" points="11.8188221 40.6178651 12.0467214 43.6136094 64.6536586 39.6543668 64.4257594 36.6582261"></polygon>
                <polygon id="Fill-29" fill="#282F54" points="12.8353601 51.3535274 65.4422973 47.3942848 65.2141992 44.3985404 12.607262 48.3577831"></polygon>
                <polygon id="Fill-30" fill="#077280" points="12.6072421 48.3578425 12.8351413 51.3535868 65.4422774 47.3945424 65.2139805 44.3984017"></polygon>
                <text id="077280" font-family="Arial-BoldMT, Arial" font-size="12" font-weight="bold" fill="#FEFEFE">
                    <tspan x="59.9785156" y="27">077280 </tspan>
                </text>
                <polygon id="Fill-32" fill="#FFFFFF" points="41.0867506 3.12923869 32.8006449 93.1117733 99.6425338 99.2267467 102.775452 98.0759401 110.072404 21.8450097 96.3246711 5.61578181 42.9928711 1.61729363"></polygon>
                <g id="Group-35" transform="translate(31.022932, 0.059463)">
                    <mask id="mask-4" fill="white">
                        <use xlink:href="#path-3"></use>
                    </mask>
                    <g id="Clip-34"></g>
                    <polygon id="Fill-33" fill="#077280" mask="url(#mask-4)" points="-5.01318641 106.206609 85.835281 106.206609 85.835281 -5.12035618 -5.01318641 -5.12035618"></polygon>
                </g>
                <polygon id="Fill-36" fill="#077280" points="52.3095944 70.7325681 94.5797306 73.8607167 94.8052435 70.8645759 52.5347095 67.7366256"></polygon>
                <polygon id="Fill-37" fill="#077280" points="52.8918113 62.9919366 95.1615498 66.1200852 95.3868638 63.1241426 53.1169264 59.9963905"></polygon>
                <polygon id="Fill-38" fill="#077280" points="53.4733123 55.2516223 95.7432496 58.3795726 95.9687625 55.3834318 53.6982285 52.2552833"></polygon>
                <polygon id="Fill-39" fill="#282F54" points="51.7278945 78.4733978 93.9980308 81.6015464 94.2233447 78.6052074 51.9530096 75.4774553"></polygon>
                <polygon id="Fill-40" fill="#282F54" points="51.1462344 86.2136924 93.4161718 89.3418409 93.6416847 86.3458984 51.3715484 83.2177499"></polygon>
                <polygon id="Fill-41" fill="#077280" points="55.2188891 32.0298665 97.4890253 35.158015 97.7139416 32.1620725 55.4440042 29.0335275"></polygon>
                <polygon id="Fill-42" fill="#077280" points="55.8003901 24.2890169 98.0703275 27.4171655 98.2954426 24.4214212 56.0253063 21.2930744"></polygon>
                <polygon id="Fill-43" fill="#077280" points="54.6366722 39.770498 96.9068084 42.8984483 97.1319235 39.9025058 54.8617873 36.774159"></polygon>
                <polygon id="Fill-44" fill="#077280" points="54.0549922 47.5107925 96.3251285 50.6389411 96.5504424 47.6431967 54.2803062 44.51485"></polygon>
                <polygon id="Fill-45" fill="#FFFFFF" points="26.9381461 7.22560292 20.5382744 6.75525084 21.7233106 99.4255116 92.5951977 99.8958637 91.9248239 19.460505 75.9478153 5.31862553"></polygon>
                <g id="Group-48" transform="translate(18.892170, 5.212920)">
                    <mask id="mask-6" fill="white">
                        <use xlink:href="#path-5"></use>
                    </mask>
                    <g id="Clip-47"></g>
                    <polygon id="Fill-46" fill="#22B6CD" mask="url(#mask-6)" points="-5.12793149 101.430543 80.808174 101.430543 80.808174 -5.07972315 -5.12793149 -5.07972315"></polygon>
                </g>
                <polygon id="Fill-49" fill="#22B6CD" points="31.4481048 74.9108525 81.3902517 74.9108525 81.3902517 71.9065851 31.4481048 71.9065851"></polygon>
                <polygon id="Fill-50" fill="#22B6CD" points="31.4481048 67.1487549 81.3902517 67.1487549 81.3902517 64.1440911 31.4481048 64.1440911"></polygon>
                <polygon id="Fill-51" fill="#22B6CD" points="31.4481048 59.3866572 81.3902517 59.3866572 81.3902517 56.3819935 31.4481048 56.3819935"></polygon>
                <polygon id="Fill-52" fill="#22B6CD" points="31.4481048 82.6727519 81.3902517 82.6727519 81.3902517 79.6682864 31.4481048 79.6682864"></polygon>
                <polygon id="Fill-53" fill="#22B6CD" points="31.4481048 90.4350478 81.3902517 90.4350478 81.3902517 87.4301858 31.4481048 87.4301858"></polygon>
                <polygon id="Fill-54" fill="#22B6CD" points="31.4481048 36.1005625 81.3902517 36.1005625 81.3902517 33.0957005 31.4481048 33.0957005"></polygon>
                <polygon id="Fill-55" fill="#22B6CD" points="31.4481048 28.3384649 81.3902517 28.3384649 81.3902517 25.3339993 31.4481048 25.3339993"></polygon>
                <polygon id="Fill-56" fill="#22B6CD" points="31.4481048 43.8626602 81.3902517 43.8626602 81.3902517 40.8581946 31.4481048 40.8581946"></polygon>
                <polygon id="Fill-57" fill="#22B6CD" points="31.4481048 51.6245596 81.3902517 51.6245596 81.3902517 48.6198958 31.4481048 48.6198958"></polygon>
            </g>
        </g>
    </g>
</svg>

<svg xmlns="http://www.w3.org/2000/svg" xmlns:xlink="http://www.w3.org/1999/xlink" width="168" height="128" viewBox="0 0 168 128">
    <defs>
        <path id="a" d="M57.754.056A3.178 3.178 0 0 1 60.02.77l14.74 12.194a2.954 2.954 0 0 1 1.073 2.05l5.839 76.65c.005.062.007.124.008.185v.076c-.02 1.543-1.263 2.846-2.89 2.968l-68.44 5.134a3.295 3.295 0 0 1-.215.009h-.059c-1.6-.014-2.945-1.206-3.064-2.772L.165 7.39a2.905 2.905 0 0 1-.008-.203v-.04c.01-1.551 1.257-2.864 2.891-2.986L57.754.056zm-54.478 7.1l6.846 89.874 68.44-5.133L72.855 17l-12.444.933c-1.718.13-3.212-1.108-3.339-2.762L56.16 3.189 3.276 7.155zm56.09-2.96l.818 10.742 11.155-.836-11.973-9.906z"/>
        <path id="c" d="M6.953 2.84C7.07 1.263 8.433.065 10.046.065c.08 0 .162.003.243.009l54.71 4.049a3.178 3.178 0 0 1 2.134 1.04l12.74 14.242c.541.605.811 1.391.752 2.185l-5.761 76.657c-.119 1.57-1.469 2.765-3.074 2.774h-.04c-.073 0-.148-.003-.223-.008L3.083 95.947C1.365 95.82.073 94.376.197 92.721L6.953 2.84zM3.309 92.95l68.443 5.065 5.63-74.9-12.445-.922c-1.718-.127-3.01-1.571-2.886-3.226l.901-11.984L10.064 3.07 3.309 92.95zm61.854-73.753l11.155.826L65.97 8.455l-.807 10.743z"/>
        <path id="e" d="M3.222.106h55.344c.835 0 1.635.316 2.226.88l13.892 13.262c.59.563.921 1.327.921 2.124V93.24c0 1.66-1.408 3.004-3.147 3.004H3.222c-1.739 0-3.148-1.345-3.148-3.004V3.11c0-1.66 1.41-3.005 3.148-3.005zm0 3.004v90.13h69.236V18.133H59.87c-1.738 0-3.147-1.345-3.147-3.005V3.11H3.222zM59.87 4.355v10.772h11.285L59.87 4.355z"/>
    </defs>
    <g fill="none" fill-rule="evenodd">
        <path fill="#FFF" d="M35.933 18.825l-1.657 1.778 5.348 90.2 67.013-3.857 2.924-1.602-4.256-76.458-16.036-14.01z"/>
        <g transform="translate(31 13.447)">
            <mask id="b" fill="#fff">
                <use xlink:href="#a"/>
            </mask>
            <path fill="#077280" d="M-5.046 105.22h91.929V-5.138H-5.046z" mask="url(#b)"/>
        </g>
        <path fill="#282F54" d="M45.604 86.574l52.607-3.96-.228-2.995-52.607 3.959z"/>
        <path fill="#077280" d="M45.376 83.578l.228 2.996 52.607-3.96-.228-2.996z"/>
        <path fill="#282F54" d="M50.514 83.191v3.013l47.697-3.59-.228-2.995zM45.015 78.833l52.607-3.959-.229-2.996-52.607 3.96z"/>
        <path fill="#077280" d="M44.786 75.838l.228 2.996 52.607-3.96-.228-2.996z"/>
        <path fill="#282F54" d="M49.924 75.451v3.013l47.697-3.59-.228-2.996zM44.425 71.094l52.607-3.96-.228-2.996-52.607 3.96z"/>
        <path fill="#077280" d="M44.197 68.098l.228 2.996 52.607-3.96-.228-2.996z"/>
        <path fill="#282F54" d="M46.194 94.314l52.607-3.96-.228-2.996-52.607 3.96z"/>
        <path fill="#077280" d="M45.966 91.318l.228 2.996 52.607-3.96-.229-2.995z"/>
        <path fill="#282F54" d="M51.103 90.931v3.013l47.698-3.59-.229-2.996zM46.783 102.054l52.608-3.96-.229-2.996-52.607 3.96z"/>
        <path fill="#077280" d="M46.555 99.058l.228 2.996 52.607-3.96-.228-2.995z"/>
        <path fill="#282F54" d="M51.693 98.671v3.013l47.697-3.59-.228-2.995zM42.457 47.874l52.607-3.96-.228-2.996-52.607 3.96z"/>
        <path fill="#077280" d="M42.229 44.878l.228 2.996 52.607-3.96-.228-2.995z"/>
        <path fill="#282F54" d="M41.868 40.134l52.607-3.96-.228-2.995-52.607 3.959z"/>
        <path fill="#077280" d="M41.64 37.138l.227 2.996 52.608-3.96-.228-2.995z"/>
        <path fill="#282F54" d="M43.047 55.614l52.607-3.96-.228-2.996-52.607 3.96z"/>
        <path fill="#077280" d="M42.819 52.618l.228 2.996 52.607-3.96-.228-2.996z"/>
        <path fill="#282F54" d="M43.835 63.354l52.607-3.96-.228-2.995-52.607 3.959z"/>
        <path fill="#077280" d="M43.607 60.358l.228 2.996 52.607-3.96-.228-2.996z"/>
        <text fill="#FEFEFE" font-family="Arial-BoldMT, Arial" font-size="12" font-weight="bold" transform="translate(31 12)">
            <tspan x="59.979" y="27">077280 </tspan>
        </text>
        <path fill="#FFF" d="M72.087 15.13L63.8 105.111l66.842 6.115 3.132-1.151 7.297-76.231-13.747-16.23-53.332-3.998z"/>
        <g transform="translate(62.023 12.06)">
            <mask id="d" fill="#fff">
                <use xlink:href="#c"/>
            </mask>
            <path fill="#077280" d="M-5.013 106.207h90.848V-5.12H-5.013z" mask="url(#d)"/>
        </g>
        <path fill="#077280" d="M83.31 82.733l42.27 3.128.225-2.996-42.27-3.128zM83.892 74.992l42.27 3.128.225-2.996-42.27-3.128zM84.473 67.252l42.27 3.128.226-2.997-42.27-3.128z"/>
        <path fill="#282F54" d="M82.728 90.473l42.27 3.129.225-2.997-42.27-3.128zM82.146 98.214l42.27 3.128.226-2.996-42.27-3.128z"/>
        <path fill="#077280" d="M86.219 44.03l42.27 3.128.225-2.996-42.27-3.128zM86.8 36.289l42.27 3.128.225-2.996-42.27-3.128zM85.637 51.77l42.27 3.128.225-2.995-42.27-3.129zM85.055 59.51l42.27 3.129.225-2.996-42.27-3.128z"/>
        <path fill="#FFF" d="M57.938 19.226l-6.4-.47 1.185 92.67 70.872.47-.67-80.435-15.977-14.142z"/>
        <g transform="translate(49.892 17.213)">
            <mask id="f" fill="#fff">
                <use xlink:href="#e"/>
            </mask>
            <path fill="#22B6CD" d="M-5.128 101.43h85.936V-5.08H-5.128z" mask="url(#f)"/>
        </g>
        <path fill="#22B6CD" d="M62.448 86.91h49.942v-3.003H62.448zM62.448 79.149h49.942v-3.005H62.448zM62.448 71.387h49.942v-3.005H62.448zM62.448 94.673h49.942v-3.005H62.448zM62.448 102.435h49.942V99.43H62.448zM62.448 48.1h49.942v-3.004H62.448zM62.448 40.338h49.942v-3.004H62.448zM62.448 55.863h49.942v-3.005H62.448zM62.448 63.625h49.942V60.62H62.448z"/>
    </g>
</svg>
